icons/document-info.svg

<svg xmlns="http://www.w3.org/2000/svg" width="24" height="24" viewBox="0 0 24 24">
  <path d="M12,1 L12,8 C12,8.55228475 12.4477153,9 13,9 L20,9 L20,21 C20,22.1045695 19.1045695,23 18,23 L6,23 C4.8954305,23 4,22.1045695 4,21 L4,3 C4,1.8954305 4.8954305,1 6,1 L12,1 Z M12,15 C11.4477153,15 11,15.4477153 11,16 L11,19 C11,19.5522847 11.4477153,20 12,20 C12.5522847,20 13,19.5522847 13,19 L13,16 C13,15.4477153 12.5522847,15 12,15 Z M12,12 C11.4477153,12 11,12.4477153 11,13 C11,13.5522847 11.4477153,14 12,14 C12.5522847,14 13,13.5522847 13,13 C13,12.4477153 12.5522847,12 12,12 Z M14,1 L20,7 L15,7 C14.4871642,7 14.0644928,6.61395981 14.0067277,6.11662113 L14,6 L14,1 Z"/>
</svg>

<svg xmlns="http://www.w3.org/2000/svg" viewBox="0 0 24 24">
  <path d="M12 1v7a1 1 0 0 0 1 1h7v12a2 2 0 0 1-2 2H6a2 2 0 0 1-2-2V3c0-1.1.9-2 2-2h6zm0 14a1 1 0 0 0-1 1v3a1 1 0 0 0 2 0v-3a1 1 0 0 0-1-1zm0-3a1 1 0 1 0 0 2 1 1 0 0 0 0-2zm2-11 6 6h-5a1 1 0 0 1-1-.88V1z"/>
</svg>
